X:295
T:B295-  Love Will Find Out the Way
Q:1/4=120
L:1/4
M:3/4
K:F
AFc|BGA/B/|cAG|[1 F3:|[2 F2||E/F/|\
G3/2 A/ G/F/|E3/2 C/ F/G/|AG3/2F/||
B2A/B/|c3/2 F/ E/D/|ECF/G/|AG3/2 F/|F2|]

